; generated by Slic3r 1.3.1-dev on 2020-04-04 at 15:10:18

; external perimeters extrusion width = 0.44mm (3.38mm^3/s)
; perimeters extrusion width = 0.56mm (8.80mm^3/s)
; infill extrusion width = 0.50mm (7.81mm^3/s)
; solid infill extrusion width = 0.56mm (2.51mm^3/s)
; top infill extrusion width = 0.56mm (1.88mm^3/s)

M107
M190 S50 ; set bed temperature and wait for it to be reached
M104 S205 ; set temperature
G28 ; home all axes
G1 Z5 F5000 ; lift nozzle

; Filament gcode

M109 S205 ; set temperature and wait for it to be reached
G21 ; set units to millimeters
G90 ; use absolute coordinates
M82 ; use absolute distances for extrusion
G92 E0
G92 E0
G1 Z0.280 F6000.000
G1 E-2.00000 F3000.00000
G92 E0
G1 X98.638 Y100.503 F6000.000
G1 E2.00000 F3000.00000
G1 F1800
G1 X99.360 Y100.141 E2.04703
G1 X100.884 Y99.485 E2.14358
G1 X101.809 Y99.161 E2.20064
G1 X103.410 Y98.724 E2.29719
G1 X104.372 Y98.533 E2.35425
G1 X106.017 Y98.324 E2.45080
G1 X106.996 Y98.268 E2.50786
G1 X108.655 Y98.291 E2.60441
G1 X109.632 Y98.373 E2.66147
G1 X111.423 Y98.653 E2.76692
G1 X164.049 Y108.003 E5.87747
G1 X166.268 Y108.801 E6.01469
G1 X168.096 Y110.290 E6.15191
G1 X169.326 Y112.302 E6.28913
G1 X169.818 Y114.608 E6.42635
G1 X169.730 Y116.038 E6.50974
G1 X169.617 Y116.716 E6.54973
G1 X169.376 Y117.668 E6.60690
G1 X169.112 Y118.470 E6.65603
G1 X147.124 Y175.398 E10.20748
G1 X146.754 Y176.199 E10.25884
G1 X146.448 Y176.767 E10.29637
G1 X145.806 Y177.749 E10.36468
G1 X145.409 Y178.258 E10.40220
G1 X144.612 Y179.119 E10.47051
G1 X144.136 Y179.554 E10.50803
G1 X143.270 Y180.228 E10.57187
G1 X142.724 Y180.584 E10.60984
G1 X140.558 Y181.515 E10.74706
G1 X137.372 Y181.538 E10.93248
G1 X35.776 Y158.548 E16.99432
G1 X34.820 Y158.248 E17.05261
G1 X33.941 Y157.834 E17.10917
G1 X33.055 Y157.253 E17.17083
G1 X31.975 Y156.248 E17.25666
G1 X31.457 Y155.580 E17.30586
G1 X30.671 Y154.103 E17.40325
G1 X30.215 Y152.321 E17.51028
G1 X30.155 Y151.412 E17.56332
G1 X30.156 Y144.161 E17.98524
G1 X30.195 Y143.421 E18.02839
G1 X30.507 Y141.921 E18.11755
G1 X30.647 Y141.526 E18.14198
G1 X31.383 Y140.104 E18.23514
G1 X32.277 Y139.001 E18.31772
G1 X32.963 Y138.390 E18.37121
G1 X33.828 Y137.802 E18.43208
G1 X98.586 Y100.533 E22.78019
G1 X98.887 Y100.936 F6000.000
G1 F1800
G1 X99.558 Y100.600 E22.82386
G1 X101.082 Y99.944 E22.92042
G1 X101.941 Y99.643 E22.97340
G1 X103.542 Y99.206 E23.06995
G1 X104.435 Y99.029 E23.12293
G1 X106.080 Y98.819 E23.21949
G1 X106.989 Y98.768 E23.27246
G1 X108.648 Y98.791 E23.36902
G1 X109.556 Y98.867 E23.42200
G1 X111.335 Y99.145 E23.52682
G1 X163.962 Y108.495 E26.63737
G1 X166.094 Y109.277 E26.76956
G1 X167.828 Y110.746 E26.90175
G1 X168.950 Y112.720 E27.03394
G1 X169.237 Y115.956 E27.22299
G1 X169.125 Y116.627 E27.26259
G1 X168.901 Y117.512 E27.31568
G1 X168.637 Y118.314 E27.36481
G1 X146.657 Y175.218 E30.91478
G1 X146.315 Y175.962 E30.96247
G1 X146.008 Y176.529 E31.00000
G1 X145.412 Y177.442 E31.06343
G1 X145.015 Y177.950 E31.10095
G1 X144.275 Y178.750 E31.16438
G1 X143.799 Y179.185 E31.20191
G1 X142.995 Y179.811 E31.26118
G1 X142.452 Y180.165 E31.29892
G1 X140.359 Y181.049 E31.43111
G1 X137.482 Y181.050 E31.59856
G1 X35.891 Y158.061 E37.66012
G1 X35.003 Y157.783 E37.71425
G1 X34.185 Y157.397 E37.76691
G1 X33.359 Y156.857 E37.82433
G1 X32.352 Y155.920 E37.90437
G1 X31.867 Y155.294 E37.95046
G1 X31.135 Y153.917 E38.04126
G1 X30.711 Y152.256 E38.14099
G1 X30.655 Y151.411 E38.19025
G1 X30.656 Y144.162 E38.61216
G1 X30.692 Y143.474 E38.65223
G1 X30.982 Y142.076 E38.73534
G1 X31.113 Y141.707 E38.75810
G1 X31.798 Y140.383 E38.84487
G1 X32.631 Y139.354 E38.92191
G1 X33.270 Y138.784 E38.97173
G1 X34.077 Y138.236 E39.02853
G1 X98.835 Y100.966 E43.37665
G1 E41.37665 F3000.00000
G92 E0
G1 X98.609 Y144.952 F6000.000
G1 E2.00000 F3000.00000
G1 F1800
G1 X94.809 Y130.821 E2.85158
G1 X95.061 Y130.724 E2.86731
G1 X95.476 Y131.539 E2.92052
G1 X96.142 Y132.664 E2.99660
G1 X97.046 Y134.004 E3.09065
G1 X98.048 Y135.328 E3.18732
G1 X99.140 Y136.640 E3.28664
G1 X100.316 Y137.943 E3.38877
G1 X101.572 Y139.239 E3.49381
G1 X102.903 Y140.533 E3.60184
G1 X104.306 Y141.825 E3.71284
G1 X105.483 Y142.865 E3.80424
G1 X113.576 Y150.694 E4.45952
G1 X138.556 Y169.246 E6.27027
G1 X138.909 Y169.558 E6.29771
G1 X139.222 Y169.960 E6.32733
G1 X139.399 Y170.274 E6.34834
G1 X139.544 Y170.678 E6.37334
G1 X139.619 Y171.101 E6.39833
G1 X139.623 Y171.531 E6.42333
G1 X139.555 Y171.955 E6.44832
G1 X139.417 Y172.362 E6.47332
G1 X139.213 Y172.740 E6.49831
G1 X138.949 Y173.078 E6.52331
G1 X138.815 Y173.200 E6.53386
G1 X103.314 Y153.979 E8.88321
G1 X38.435 Y150.525 E12.66421
G1 X38.435 Y145.154 E12.97672
G1 X47.496 Y145.663 E13.50485
G1 X57.565 Y145.997 E14.09111
G1 X67.638 Y146.097 E14.67738
G1 X77.712 Y145.962 E15.26365
G1 X87.779 Y145.593 E15.84989
G1 X98.549 Y144.955 E16.47778
G1 E14.47778 F3000.00000
G92 E0
G1 X102.720 Y127.846 F6000.000
G1 E2.00000 F3000.00000
G1 F1800
G1 X101.654 Y129.443 E2.11177
G1 X101.530 Y129.223 E2.12649
G1 X101.193 Y128.503 E2.17276
G1 X100.946 Y127.756 E2.21851
G1 X100.842 Y127.123 E2.25586
G1 X100.854 Y126.655 E2.28308
G1 X100.943 Y126.196 E2.31031
G1 X101.107 Y125.758 E2.33754
G1 X101.341 Y125.353 E2.36476
G1 X101.640 Y124.993 E2.39199
G1 X101.995 Y124.688 E2.41922
G1 X102.395 Y124.446 E2.44645
G1 X102.830 Y124.274 E2.47367
G1 X103.288 Y124.176 E2.50090
G1 X103.755 Y124.156 E2.52813
G1 X104.219 Y124.214 E2.55535
G1 X104.667 Y124.348 E2.58258
G1 X105.087 Y124.555 E2.60981
G1 X105.466 Y124.829 E2.63703
G1 X105.795 Y125.162 E2.66426
G1 X106.056 Y125.535 E2.69075
G1 X106.214 Y125.884 E2.71305
G1 X106.285 Y126.136 E2.72829
G1 X106.319 Y126.451 E2.74672
G1 X106.299 Y126.767 E2.76515
G1 X106.226 Y127.075 E2.78357
G1 X106.103 Y127.367 E2.80200
G1 X105.933 Y127.634 E2.82043
G1 X105.720 Y127.868 E2.83886
G1 X105.471 Y128.063 E2.85728
G1 X105.192 Y128.214 E2.87571
G1 X104.892 Y128.316 E2.89414
G1 X104.580 Y128.366 E2.91257
G1 X104.263 Y128.363 E2.93099
G1 X103.958 Y128.308 E2.94903
G1 X102.777 Y127.867 E3.02241
G1 E1.02241 F3000.00000
G92 E0
G1 X111.528 Y131.932 F6000.000
G1 E2.00000 F3000.00000
G1 F1800
G1 X111.966 Y131.583 E2.03262
G1 X112.464 Y131.036 E2.07564
G1 X112.914 Y130.314 E2.12519
G1 X113.203 Y129.564 E2.17196
G1 X113.344 Y128.852 E2.21420
G1 X113.363 Y127.948 E2.26679
G1 X113.243 Y127.139 E2.31437
G1 X113.019 Y126.363 E2.36141
G1 X112.802 Y125.823 E2.39527
G1 X113.000 Y125.687 E2.40928
G1 X113.325 Y125.990 E2.43509
G1 X114.083 Y126.507 E2.48850
G1 X114.911 Y126.902 E2.54191
G1 X115.790 Y127.167 E2.59532
G1 X116.698 Y127.296 E2.64873
G1 X117.616 Y127.284 E2.70214
G1 X118.473 Y127.141 E2.75270
G1 X121.942 Y126.286 E2.96059
G1 X122.617 Y126.056 E3.00211
G1 X123.291 Y125.686 E3.04686
G1 X123.891 Y125.206 E3.09162
G1 X124.400 Y124.628 E3.13638
G1 X124.801 Y123.972 E3.18114
G1 X125.082 Y123.256 E3.22590
G1 X125.236 Y122.503 E3.27065
G1 X125.258 Y121.734 E3.31541
G1 X125.146 Y120.973 E3.36017
G1 X124.905 Y120.243 E3.40493
G1 X124.541 Y119.565 E3.44968
G1 X124.066 Y118.960 E3.49444
G1 X123.535 Y118.484 E3.53595
G1 X114.928 Y112.013 E4.16264
G1 X113.346 Y110.993 E4.27216
G1 X111.593 Y110.191 E4.38436
G1 X109.743 Y109.648 E4.49656
G1 X107.834 Y109.375 E4.60876
G1 X105.906 Y109.378 E4.72096
G1 X103.999 Y109.657 E4.83317
G1 X102.150 Y110.206 E4.94537
G1 X100.400 Y111.014 E5.05757
G1 X98.822 Y112.039 E5.16709
G1 X79.323 Y126.799 E6.59023
G1 X79.004 Y127.209 E6.62048
G1 X78.827 Y127.780 E6.65528
G1 X78.904 Y128.415 E6.69247
G1 X79.137 Y128.839 E6.72062
G1 X81.002 Y131.088 E6.89066
G1 X78.777 Y131.466 E7.02203
G1 X74.973 Y132.374 E7.24964
G1 X71.237 Y133.531 E7.47725
G1 X67.585 Y134.931 E7.70481
G1 X66.212 Y135.563 E7.79278
G1 X67.411 Y132.624 E7.97745
G1 X101.416 Y108.503 E10.40371
G1 X102.718 Y107.710 E10.49243
G1 X104.077 Y107.125 E10.57853
G1 X105.504 Y106.735 E10.66462
G1 X106.972 Y106.548 E10.75072
G1 X108.451 Y106.569 E10.83682
G1 X109.913 Y106.796 E10.92292
G1 X111.329 Y107.225 E11.00902
G1 X112.671 Y107.847 E11.09512
G1 X113.951 Y108.676 E11.18383
G1 X131.922 Y122.186 E12.49222
G1 X132.433 Y122.514 E12.52757
G1 X133.030 Y122.783 E12.56567
G1 X133.660 Y122.961 E12.60378
G1 X134.310 Y123.044 E12.64189
G1 X134.965 Y123.031 E12.68000
G1 X135.563 Y122.929 E12.71535
G1 X160.214 Y116.856 E14.19279
G1 X160.324 Y117.063 E14.20643
G1 X160.144 Y117.224 E14.22048
G1 X159.617 Y117.552 E14.25657
G1 X158.990 Y117.803 E14.29591
G1 X111.643 Y132.152 E17.17500
G1 X111.556 Y131.985 E17.18595
G1 E15.18595 F3000.00000
G92 E0
G1 X102.916 Y128.453 F6000.000
G1 E2.00000 F3000.00000
G1 F1800
G1 X102.186 Y129.547 E2.07657
G1 X103.140 Y130.566 E2.15780
G1 X103.791 Y131.104 E2.20694
G1 X104.274 Y131.427 E2.24074
G1 X105.053 Y131.841 E2.29211
G1 X105.879 Y132.158 E2.34361
G1 X106.174 Y132.246 E2.36148
G1 X107.028 Y132.426 E2.41229
G1 X107.890 Y132.495 E2.46261
G1 X108.298 Y132.490 E2.48634
G1 X109.115 Y132.402 E2.53419
G1 X109.900 Y132.207 E2.58126
G1 X110.490 Y131.976 E2.61810
G1 X111.107 Y131.628 E2.65935
G1 X111.624 Y131.217 E2.69776
G1 X112.063 Y130.734 E2.73580
G1 X112.465 Y130.090 E2.77994
G1 X112.721 Y129.424 E2.82144
G1 X112.845 Y128.797 E2.85863
G1 X112.862 Y127.980 E2.90623
G1 X112.754 Y127.246 E2.94941
G1 X112.546 Y126.526 E2.99300
G1 X112.341 Y126.016 E3.02501
G1 X111.936 Y125.240 E3.07596
G1 X111.426 Y124.483 E3.12901
G1 X110.688 Y123.618 E3.19523
G1 X109.922 Y122.890 E3.25674
G1 X109.074 Y122.218 E3.31970
G1 X108.123 Y121.591 E3.38600
G1 X107.053 Y121.012 E3.45676
G1 X105.925 Y120.521 E3.52838
G1 X104.743 Y120.124 E3.60094
G1 X103.618 Y119.851 E3.66832
G1 X102.414 Y119.669 E3.73916
G1 X101.181 Y119.604 E3.81103
G1 X100.089 Y119.661 E3.87465
G1 X99.049 Y119.829 E3.93595
G1 X98.452 Y119.983 E3.97182
G1 X97.581 Y120.297 E4.02572
G1 X96.636 Y120.796 E4.08793
G1 X95.998 Y121.270 E4.13414
G1 X95.460 Y121.806 E4.17833
G1 X95.168 Y122.175 E4.20575
G1 X94.782 Y122.806 E4.24881
G1 X94.488 Y123.491 E4.29216
G1 X94.384 Y123.815 E4.31198
G1 X94.220 Y124.579 E4.35747
G1 X94.154 Y125.376 E4.40400
G1 X94.154 Y125.731 E4.42467
G1 X94.228 Y126.632 E4.47725
G1 X94.405 Y127.559 E4.53220
G1 X94.670 Y128.491 E4.58860
G1 X94.836 Y128.969 E4.61804
G1 X95.321 Y130.131 E4.69129
G1 X95.914 Y131.298 E4.76749
G1 X96.564 Y132.397 E4.84178
G1 X97.452 Y133.713 E4.93418
G1 X98.440 Y135.017 E5.02938
G1 X99.518 Y136.312 E5.12745
G1 X100.681 Y137.601 E5.22849
G1 X101.925 Y138.886 E5.33257
G1 X103.247 Y140.170 E5.43977
G1 X104.641 Y141.454 E5.55008
G1 X105.822 Y142.498 E5.64184
G1 X113.900 Y150.312 E6.29588
G1 X138.871 Y168.857 E8.10596
G1 X139.275 Y169.214 E8.13734
G1 X139.639 Y169.682 E8.17186
G1 X139.855 Y170.066 E8.19749
G1 X140.029 Y170.549 E8.22738
G1 X140.119 Y171.055 E8.25727
G1 X140.123 Y171.569 E8.28716
G1 X140.042 Y172.076 E8.31705
G1 X139.877 Y172.562 E8.34695
G1 X139.633 Y173.014 E8.37684
G1 X139.317 Y173.419 E8.40673
G1 X138.890 Y173.809 E8.44041
G1 X103.175 Y154.472 E10.80390
G1 X37.935 Y150.999 E14.60593
G1 X37.935 Y144.626 E14.97680
G1 X47.519 Y145.164 E15.53537
G1 X57.575 Y145.497 E16.12095
G1 X67.638 Y145.597 E16.70655
G1 X77.699 Y145.462 E17.29214
G1 X87.755 Y145.094 E17.87771
G1 X97.967 Y144.489 E18.47306
G1 X93.576 Y128.160 E19.45711
G1 X93.289 Y126.752 E19.54073
G1 X93.207 Y125.712 E19.60141
G1 X93.228 Y124.946 E19.64604
G1 X93.417 Y123.763 E19.71575
G1 X93.576 Y123.222 E19.74857
G1 X93.785 Y122.694 E19.78158
G1 X94.316 Y121.749 E19.84466
G1 X94.803 Y121.126 E19.89067
G1 X95.214 Y120.707 E19.92483
G1 X95.922 Y120.138 E19.97772
G1 X96.701 Y119.665 E20.03075
G1 X97.344 Y119.363 E20.07207
G1 X98.000 Y119.124 E20.11268
G1 X99.423 Y118.791 E20.19775
G1 X100.418 Y118.681 E20.25603
G1 X101.949 Y118.680 E20.34511
G1 X103.480 Y118.860 E20.43485
G1 X104.472 Y119.069 E20.49384
G1 X105.948 Y119.517 E20.58357
G1 X107.368 Y120.110 E20.67315
G1 X108.852 Y120.926 E20.77171
G1 X110.216 Y121.899 E20.86918
G1 X111.459 Y123.053 E20.96795
G1 X112.005 Y123.682 E21.01638
G1 X112.531 Y124.400 E21.06817
G1 X113.023 Y125.024 E21.11442
G1 X113.638 Y125.598 E21.16338
G1 X114.333 Y126.072 E21.21233
G1 X115.092 Y126.435 E21.26129
G1 X115.897 Y126.678 E21.31025
G1 X116.730 Y126.795 E21.35921
G1 X117.572 Y126.785 E21.40816
G1 X118.372 Y126.651 E21.45538
G1 X121.801 Y125.806 E21.66090
G1 X122.414 Y125.597 E21.69862
G1 X123.012 Y125.269 E21.73832
G1 X123.545 Y124.843 E21.77802
G1 X123.996 Y124.331 E21.81772
G1 X124.351 Y123.749 E21.85742
G1 X124.601 Y123.114 E21.89711
G1 X124.738 Y122.445 E21.93681
G1 X124.757 Y121.764 E21.97651
G1 X124.658 Y121.089 E22.01621
G1 X124.444 Y120.441 E22.05590
G1 X124.122 Y119.840 E22.09560
G1 X123.700 Y119.303 E22.13530
G1 X123.218 Y118.871 E22.17302
G1 X114.642 Y112.423 E22.79740
G1 X113.105 Y111.433 E22.90378
G1 X111.418 Y110.660 E23.01180
G1 X109.637 Y110.137 E23.11981
G1 X107.799 Y109.875 E23.22783
G1 X105.943 Y109.878 E23.33585
G1 X104.107 Y110.146 E23.44386
G1 X102.327 Y110.675 E23.55188
G1 X100.642 Y111.453 E23.65990
G1 X99.109 Y112.449 E23.76628
G1 X79.677 Y127.158 E25.18454
G1 X79.455 Y127.444 E25.20566
G1 X79.336 Y127.826 E25.22893
G1 X79.389 Y128.259 E25.25430
G1 X79.552 Y128.556 E25.27406
G1 X81.940 Y131.435 E25.49173
G1 X78.877 Y131.956 E25.67255
G1 X75.105 Y132.857 E25.89824
G1 X71.400 Y134.004 E26.12393
G1 X67.780 Y135.392 E26.34960
G1 X65.271 Y136.545 E26.51026
G1 X67.003 Y132.301 E26.77704
G1 X101.141 Y108.085 E29.21279
G1 X102.488 Y107.265 E29.30456
G1 X103.911 Y106.652 E29.39475
G1 X105.406 Y106.243 E29.48493
G1 X106.944 Y106.048 E29.57511
G1 X108.493 Y106.070 E29.66529
G1 X110.024 Y106.307 E29.75548
G1 X111.508 Y106.757 E29.84566
G1 X112.913 Y107.409 E29.93584
G1 X114.237 Y108.266 E30.02762
G1 X132.208 Y121.775 E31.33595
G1 X132.672 Y122.073 E31.36807
G1 X133.202 Y122.312 E31.40188
G1 X133.761 Y122.470 E31.43568
G1 X134.337 Y122.544 E31.46948
G1 X134.918 Y122.532 E31.50329
G1 X135.462 Y122.440 E31.53541
G1 X161.749 Y115.963 E33.11096
G1 X161.409 Y116.598 E33.15290
G1 X160.972 Y117.154 E33.19407
G1 X160.445 Y117.626 E33.23523
G1 X159.844 Y117.999 E33.27640
G1 X159.155 Y118.275 E33.31956
G1 X110.077 Y133.149 E36.30392
G1 X109.245 Y133.345 E36.35367
G1 X108.407 Y133.437 E36.40276
G1 X107.513 Y133.429 E36.45481
G1 X106.614 Y133.318 E36.50750
G1 X105.721 Y133.104 E36.56096
G1 X105.177 Y132.920 E36.59434
G1 X104.340 Y132.550 E36.64760
G1 X103.566 Y132.102 E36.69965
G1 X102.803 Y131.533 E36.75507
G1 X102.179 Y130.944 E36.80500
G1 X101.634 Y130.300 E36.85408
G1 X101.163 Y129.590 E36.90367
G1 X100.727 Y128.688 E36.96195
G1 X100.424 Y127.725 E37.02074
G1 X100.341 Y127.153 E37.05436
G1 X100.355 Y126.601 E37.08646
G1 X100.460 Y126.060 E37.11855
G1 X100.653 Y125.543 E37.15065
G1 X100.930 Y125.066 E37.18275
G1 X101.282 Y124.642 E37.21485
G1 X101.700 Y124.282 E37.24695
G1 X102.172 Y123.996 E37.27905
G1 X102.685 Y123.793 E37.31114
G1 X103.224 Y123.678 E37.34324
G1 X103.775 Y123.655 E37.37534
G1 X104.323 Y123.723 E37.40744
G1 X104.851 Y123.881 E37.43954
G1 X105.346 Y124.125 E37.47163
G1 X105.793 Y124.448 E37.50373
G1 X106.180 Y124.841 E37.53583
G1 X106.492 Y125.286 E37.56748
G1 X106.685 Y125.712 E37.59469
G1 X106.778 Y126.041 E37.61457
G1 X106.820 Y126.440 E37.63792
G1 X106.795 Y126.840 E37.66126
G1 X106.703 Y127.231 E37.68461
G1 X106.547 Y127.600 E37.70795
G1 X106.331 Y127.938 E37.73130
G1 X106.061 Y128.235 E37.75465
G1 X105.746 Y128.483 E37.77799
G1 X105.393 Y128.674 E37.80134
G1 X105.013 Y128.803 E37.82468
G1 X104.617 Y128.867 E37.84803
G1 X104.216 Y128.863 E37.87138
G1 X103.825 Y128.792 E37.89449
G1 X102.973 Y128.474 E37.94744
G1 X103.112 Y129.060 F6000.000
G1 F1800
G1 X102.822 Y129.495 E37.97788
G1 X103.484 Y130.201 E38.03419
G1 X104.090 Y130.703 E38.08000
G1 X104.531 Y130.997 E38.11084
G1 X105.261 Y131.385 E38.15898
G1 X106.040 Y131.685 E38.20755
G1 X106.296 Y131.761 E38.22311
G1 X107.100 Y131.930 E38.27090
G1 X107.907 Y131.995 E38.31800
G1 X108.268 Y131.990 E38.33900
G1 X109.028 Y131.909 E38.38351
G1 X109.748 Y131.730 E38.42669
G1 X110.274 Y131.523 E38.45959
G1 X110.827 Y131.212 E38.49650
G1 X111.281 Y130.851 E38.53026
G1 X111.663 Y130.431 E38.56331
G1 X112.015 Y129.866 E38.60204
G1 X112.239 Y129.285 E38.63827
G1 X112.346 Y128.743 E38.67041
