; G-Code generated by Simplify3D(R) Version 4.0.1
; Apr 19, 2020 at 9:28:21 AM
; Settings Summary
;   processName,Process1
;   applyToModels,ProtKapoV6
;   profileName,P3Steel (modified)
;   profileVersion,2020-04-15 20:42:45
;   baseProfile,Default
;   printMaterial,PLA
;   printQuality,Medium
;   printExtruders,
;   extruderName,Primary Extruder
;   extruderToolheadNumber,0
;   extruderDiameter,0.4
;   extruderAutoWidth,1
;   extruderWidth,0.48
;   extrusionMultiplier,1.05
;   extruderUseRetract,1
;   extruderRetractionDistance,1.8
;   extruderExtraRestartDistance,0
;   extruderRetractionZLift,0
;   extruderRetractionSpeed,3900
;   extruderUseCoasting,0
;   extruderCoastingDistance,0.2
;   extruderUseWipe,0
;   extruderWipeDistance,5
;   primaryExtruder,0
;   layerHeight,0.25
;   topSolidLayers,3
;   bottomSolidLayers,3
;   perimeterOutlines,2
;   printPerimetersInsideOut,1
;   startPointOption,2
;   startPointOriginX,0
;   startPointOriginY,0
;   sequentialIslands,0
;   spiralVaseMode,0
;   firstLayerHeightPercentage,90
;   firstLayerWidthPercentage,100
;   firstLayerUnderspeed,0.5
;   useRaft,0
;   raftExtruder,0
;   raftTopLayers,3
;   raftBaseLayers,2
;   raftOffset,3
;   raftSeparationDistance,0.14
;   raftTopInfill,100
;   aboveRaftSpeedMultiplier,0.3
;   useSkirt,1
;   skirtExtruder,0
;   skirtLayers,1
;   skirtOutlines,2
;   skirtOffset,6
;   usePrimePillar,0
;   primePillarExtruder,999
;   primePillarWidth,12
;   primePillarLocation,7
;   primePillarSpeedMultiplier,1
;   useOozeShield,0
;   oozeShieldExtruder,999
;   oozeShieldOffset,2
;   oozeShieldOutlines,1
;   oozeShieldSidewallShape,1
;   oozeShieldSidewallAngle,30
;   oozeShieldSpeedMultiplier,1
;   infillExtruder,0
;   internalInfillPattern,Rectilinear
;   externalInfillPattern,Rectilinear
;   infillPercentage,20
;   outlineOverlapPercentage,15
;   infillExtrusionWidthPercentage,100
;   minInfillLength,3
;   infillLayerInterval,1
;   internalInfillAngles,45,-45
;   overlapInternalInfillAngles,0
;   externalInfillAngles,45,-45
;   generateSupport,1
;   supportExtruder,0
;   supportInfillPercentage,30
;   supportExtraInflation,0
;   supportBaseLayers,0
;   denseSupportExtruder,0
;   denseSupportLayers,0
;   denseSupportInfillPercentage,70
;   supportLayerInterval,1
;   supportHorizontalPartOffset,0.3
;   supportUpperSeparationLayers,1
;   supportLowerSeparationLayers,1
;   supportType,0
;   supportGridSpacing,4
;   maxOverhangAngle,45
;   supportAngles,0
;   temperatureName,Primary Extruder,Heated Bed
;   temperatureNumber,0,1
;   temperatureSetpointCount,2,1
;   temperatureSetpointLayers,1,2,1
;   temperatureSetpointTemperatures,205,200,50
;   temperatureStabilizeAtStartup,1,1
;   temperatureHeatedBed,0,1
;   temperatureRelayBetweenLayers,0,0
;   temperatureRelayBetweenLoops,0,0
;   fanLayers,1,2
;   fanSpeeds,0,100
;   blipFanToFullPower,0
;   adjustSpeedForCooling,1
;   minSpeedLayerTime,15
;   minCoolingSpeedSlowdown,20
;   increaseFanForCooling,0
;   minFanLayerTime,45
;   maxCoolingFanSpeed,100
;   increaseFanForBridging,0
;   bridgingFanSpeed,100
;   use5D,1
;   relativeEdistances,0
;   allowEaxisZeroing,1
;   independentExtruderAxes,0
;   includeM10123,0
;   stickySupport,1
;   applyToolheadOffsets,0
;   gcodeXoffset,0
;   gcodeYoffset,0
;   gcodeZoffset,0
;   overrideMachineDefinition,1
;   machineTypeOverride,0
;   strokeXoverride,192
;   strokeYoverride,185
;   strokeZoverride,165
;   originOffsetXoverride,0
;   originOffsetYoverride,0
;   originOffsetZoverride,0
;   homeXdirOverride,-1
;   homeYdirOverride,-1
;   homeZdirOverride,-1
;   flipXoverride,1
;   flipYoverride,-1
;   flipZoverride,1
;   toolheadOffsets,0,0|0,0|0,0|0,0|0,0|0,0
;   overrideFirmwareConfiguration,0
;   firmwareTypeOverride,RepRap (Marlin/Repetier/Sprinter)
;   GPXconfigOverride,r2
;   baudRateOverride,115200
;   overridePrinterModels,0
;   printerModelsOverride
;   startingGcode,G28 ; home all axes
;   layerChangeGcode,
;   retractionGcode,
;   toolChangeGcode,
;   endingGcode,G28 Y0 X0 ,M104 S0 ; turn off extruder,M140 S0 ; turn off bed,M84 ; disable motors,M107 ; turn off fan
;   exportFileFormat,gcode
;   celebration,0
;   celebrationSong,Random Song
;   postProcessing,
;   defaultSpeed,3900
;   outlineUnderspeed,0.7
;   solidInfillUnderspeed,0.8
;   supportUnderspeed,0.8
;   rapidXYspeed,4200
;   rapidZspeed,900
;   minBridgingArea,50
;   bridgingExtraInflation,0
;   bridgingExtrusionMultiplier,1
;   bridgingSpeedMultiplier,1
;   useFixedBridgingAngle,0
;   fixedBridgingAngle,0
;   applyBridgingToPerimeters,0
;   filamentDiameters,1.75|1.75|1.75|1.75|1.75|1.75
;   filamentPricesPerKg,16|16|16|16|16|16
;   filamentDensities,1.25|1.25|1.25|1.25|1.25|1.25
;   useMinPrintHeight,0
;   minPrintHeight,0
;   useMaxPrintHeight,0
;   maxPrintHeight,0
;   useDiaphragm,0
;   diaphragmLayerInterval,20
;   robustSlicing,1
;   mergeAllIntoSolid,0
;   onlyRetractWhenCrossingOutline,1
;   retractBetweenLayers,1
;   useRetractionMinTravel,0
;   retractionMinTravel,3
;   retractWhileWiping,0
;   onlyWipeOutlines,1
;   avoidCrossingOutline,0
;   maxMovementDetourFactor,3
;   toolChangeRetractionDistance,12
;   toolChangeExtraRestartDistance,-0.5
;   toolChangeRetractionSpeed,600
;   externalThinWallType,0
;   internalThinWallType,2
;   thinWallAllowedOverlapPercentage,10
;   singleExtrusionMinLength,1
;   singleExtrusionMinPrintingWidthPercentage,50
;   singleExtrusionMaxPrintingWidthPercentage,200
;   singleExtrusionEndpointExtension,0.2
;   horizontalSizeCompensation,0
G90
M82
M106 S0
M140 S50
M190 S50
M104 S205 T0
M109 S205 T0
G28 ; home all axes
G92 E0
G1 E-1.8000 F3900
G1 Z0.225 F900
; process Process1
; layer 1, Z = 0.225
T0
; tool H0.250 W0.480
; skirt
G1 X34.783 Y97.618 F4200
G1 E0.0000 F1170
G92 E0
G1 X36.314 Y97.221 E0.0829 F1950
G1 X36.369 Y97.211 E0.0858
G1 X37.353 Y97.114 E0.1376
G1 X37.408 Y97.113 E0.1405
G1 X47.853 Y97.703 E0.6885
G1 X57.443 Y98.021 E1.1911
G1 X57.368 Y97.531 E1.2171
G1 X57.367 Y97.435 E1.2221
G1 X57.567 Y95.732 E1.3120
G1 X57.591 Y95.638 E1.3170
G1 X60.343 Y88.854 E1.7005
G1 X60.370 Y88.801 E1.7036
G1 X60.922 Y87.902 E1.7589
G1 X60.957 Y87.854 E1.7620
G1 X61.634 Y87.076 E1.8161
G1 X61.664 Y87.045 E1.8183
G1 X62.225 Y86.538 E1.8579
G1 X62.258 Y86.511 E1.8602
G1 X96.934 Y61.914 E4.0872
G1 X96.944 Y61.906 E4.0879
G1 X97.130 Y61.784 E4.0996
G1 X97.141 Y61.777 E4.1002
G1 X98.840 Y60.743 E4.2044
G1 X98.862 Y60.730 E4.2057
G1 X99.258 Y60.526 E4.2291
G1 X99.281 Y60.515 E4.2304
G1 X101.210 Y59.684 E4.3405
G1 X101.234 Y59.675 E4.3418
G1 X101.655 Y59.528 E4.3651
G1 X101.679 Y59.520 E4.3665
G1 X103.705 Y58.967 E4.4765
G1 X103.730 Y58.961 E4.4778
G1 X104.167 Y58.874 E4.5012
G1 X104.192 Y58.870 E4.5025
G1 X106.276 Y58.605 E4.6126
G1 X106.301 Y58.603 E4.6139
G1 X106.746 Y58.578 E4.6372
G1 X106.771 Y58.577 E4.6386
G1 X108.872 Y58.606 E4.7486
G1 X108.897 Y58.608 E4.7499
G1 X109.341 Y58.645 E4.7733
G1 X109.366 Y58.648 E4.7746
G1 X111.442 Y58.970 E4.8846
G1 X111.467 Y58.975 E4.8860
G1 X111.902 Y59.074 E4.9093
G1 X111.926 Y59.080 E4.9106
G1 X113.936 Y59.689 E5.0207
G1 X113.960 Y59.698 E5.0220
G1 X114.377 Y59.856 E5.0454
G1 X114.400 Y59.866 E5.0467
G1 X116.306 Y60.750 E5.1567
G1 X116.328 Y60.762 E5.1580
G1 X116.719 Y60.977 E5.1814
G1 X116.740 Y60.990 E5.1827
G1 X118.410 Y62.071 E5.2869
G1 X118.421 Y62.078 E5.2876
G1 X118.603 Y62.206 E5.2993
G1 X118.613 Y62.213 E5.2999
G1 X135.331 Y74.781 E6.3955
G1 X164.514 Y67.589 E7.9700
G1 X164.867 Y67.681 E7.9891
G1 X169.884 Y72.365 E8.3487
G1 X170.000 Y72.711 E8.3678
G1 X169.275 Y76.858 E8.5883
G1 X169.270 Y76.883 E8.5897
G1 X169.158 Y77.330 E8.6138
G1 X169.151 Y77.355 E8.6151
G1 X168.730 Y78.633 E8.6856
G1 X168.719 Y78.662 E8.6873
G1 X168.501 Y79.172 E8.7163
G1 X168.487 Y79.201 E8.7180
G1 X167.829 Y80.428 E8.7909
G1 X167.813 Y80.455 E8.7926
G1 X167.509 Y80.920 E8.8216
G1 X167.491 Y80.945 E8.8233
G1 X166.630 Y82.040 E8.8962
G1 X166.610 Y82.064 E8.8979
G1 X166.230 Y82.468 E8.9269
G1 X166.208 Y82.490 E8.9286
G1 X165.170 Y83.419 E9.0016
G1 X165.146 Y83.439 E9.0032
G1 X164.702 Y83.772 E9.0323
G1 X164.676 Y83.789 E9.0339
G1 X163.493 Y84.524 E9.1069
G1 X163.465 Y84.539 E9.1085
G1 X162.970 Y84.790 E9.1376
G1 X162.942 Y84.803 E9.1392
G1 X161.778 Y85.270 E9.2049
G1 X161.763 Y85.275 E9.2057
G1 X161.501 Y85.367 E9.2203
G1 X161.486 Y85.372 E9.2211
G1 X113.800 Y99.824 E11.8313
G1 X118.743 Y104.607 E12.1916
G1 X143.457 Y122.961 E13.8042
G1 X143.469 Y122.971 E13.8050
G1 X143.676 Y123.139 E13.8190
G1 X143.688 Y123.148 E13.8198
G1 X144.468 Y123.836 E13.8743
G1 X144.489 Y123.857 E13.8759
G1 X144.859 Y124.243 E13.9039
G1 X144.879 Y124.265 E13.9054
G1 X145.617 Y125.178 E13.9669
G1 X145.635 Y125.202 E13.9685
G1 X145.935 Y125.644 E13.9965
G1 X145.951 Y125.670 E13.9981
G1 X146.526 Y126.693 E14.0595
G1 X146.540 Y126.720 E14.0611
G1 X146.762 Y127.206 E14.0891
G1 X146.773 Y127.234 E14.0907
G1 X147.169 Y128.338 E14.1522
G1 X147.178 Y128.367 E14.1537
G1 X147.316 Y128.883 E14.1817
G1 X147.322 Y128.913 E14.1833
G1 X147.529 Y130.068 E14.2448
G1 X147.533 Y130.098 E14.2464
G1 X147.582 Y130.630 E14.2743
G1 X147.584 Y130.660 E14.2759
G1 X147.594 Y131.833 E14.3374
G1 X147.593 Y131.864 E14.3390
G1 X147.553 Y132.396 E14.3670
G1 X147.549 Y132.426 E14.3686
G1 X147.363 Y133.585 E14.4300
G1 X147.357 Y133.615 E14.4316
G1 X147.228 Y134.133 E14.4596
G1 X147.220 Y134.162 E14.4612
G1 X146.843 Y135.274 E14.5227
G1 X146.832 Y135.302 E14.5242
G1 X146.619 Y135.791 E14.5522
G1 X146.605 Y135.818 E14.5538
G1 X146.048 Y136.851 E14.6153
G1 X146.033 Y136.877 E14.6169
G1 X145.740 Y137.324 E14.6448
G1 X145.723 Y137.349 E14.6464
G1 X145.001 Y138.274 E14.7079
G1 X144.981 Y138.297 E14.7095
G1 X144.618 Y138.689 E14.7375
G1 X144.597 Y138.710 E14.7391
G1 X143.741 Y139.493 E14.7998
G1 X143.719 Y139.511 E14.8013
G1 X143.319 Y139.822 E14.8278
G1 X143.296 Y139.838 E14.8293
G1 X141.139 Y141.255 E14.9645
G1 X140.953 Y141.314 E14.9747
G1 X137.449 Y141.463 E15.1584
G1 X137.259 Y141.419 E15.1687
G1 X101.099 Y121.840 E17.3228
G1 X86.165 Y121.044 E18.1062
G1 X86.165 Y125.190 E18.3233
G1 X86.055 Y125.454 E18.3383
G1 X82.338 Y129.172 E18.6137
G1 X82.073 Y129.281 E18.6287
G1 X72.344 Y129.281 E19.1384
G1 X72.080 Y129.172 E19.1533
G1 X68.366 Y125.474 E19.4279
G1 X68.256 Y125.211 E19.4429
G1 X68.234 Y120.090 E19.7111
G1 X36.496 Y118.400 E21.3761
G1 X36.429 Y118.390 E21.3796
G1 X35.270 Y118.106 E21.4421
G1 X35.206 Y118.084 E21.4457
G1 X33.894 Y117.486 E21.5212
G1 X33.828 Y117.447 E21.5252
G1 X32.736 Y116.631 E21.5966
G1 X32.679 Y116.579 E21.6006
G1 X31.697 Y115.451 E21.6790
G1 X31.652 Y115.385 E21.6832
G1 X30.978 Y114.132 E21.7577
G1 X30.948 Y114.057 E21.7619
G1 X30.597 Y112.790 E21.8308
G1 X30.587 Y112.742 E21.8334
G1 X30.471 Y111.889 E21.8785
G1 X30.468 Y111.840 E21.8810
G1 X30.468 Y103.762 E22.3042
G1 X30.471 Y103.717 E22.3066
G1 X30.571 Y102.923 E22.3485
G1 X30.580 Y102.878 E22.3509
G1 X30.922 Y101.548 E22.4229
G1 X30.956 Y101.462 E22.4277
G1 X31.745 Y100.039 E22.5129
G1 X31.799 Y99.965 E22.5177
G1 X33.077 Y98.622 E22.6149
G1 X33.156 Y98.559 E22.6201
G1 X34.690 Y97.656 E22.7134
G1 X34.783 Y97.618 E22.7186
G1 X34.936 Y98.074 F4200
G92 E0
G1 X36.417 Y97.690 E0.0801 F1950
G1 X36.435 Y97.687 E0.0811
G1 X37.381 Y97.593 E0.1309
G1 X37.400 Y97.593 E0.1319
G1 X47.832 Y98.182 E0.6792
G1 X57.726 Y98.511 E1.1978
G1 X58.003 Y98.513 E1.2124
G1 X57.848 Y97.491 E1.2665
G1 X57.847 Y97.459 E1.2682
G1 X58.040 Y95.820 E1.3547
G1 X58.048 Y95.789 E1.3563
G1 X60.780 Y89.053 E1.7371
G1 X60.789 Y89.035 E1.7382
G1 X61.320 Y88.170 E1.7913
G1 X61.332 Y88.154 E1.7924
G1 X61.987 Y87.402 E1.8446
G1 X61.997 Y87.391 E1.8454
G1 X62.537 Y86.903 E1.8835
G1 X62.548 Y86.894 E1.8843
G1 X97.208 Y62.308 E4.1103
G1 X97.211 Y62.305 E4.1106
G1 X97.391 Y62.187 E4.1218
G1 X97.394 Y62.185 E4.1220
G1 X99.082 Y61.157 E4.2256
G1 X99.090 Y61.153 E4.2260
G1 X99.471 Y60.956 E4.2485
G1 X99.478 Y60.952 E4.2489
G1 X101.392 Y60.128 E4.3581
G1 X101.400 Y60.125 E4.3585
G1 X101.805 Y59.983 E4.3810
G1 X101.813 Y59.981 E4.3814
G1 X103.823 Y59.432 E4.4906
G1 X103.832 Y59.430 E4.4910
G1 X104.252 Y59.346 E4.5135
G1 X104.261 Y59.345 E4.5140
G1 X106.328 Y59.082 E4.6231
G1 X106.336 Y59.082 E4.6236
G1 X106.765 Y59.058 E4.6460
G1 X106.773 Y59.057 E4.6465
G1 X108.857 Y59.086 E4.7556
G1 X108.865 Y59.087 E4.7561
G1 X109.293 Y59.123 E4.7786
G1 X109.301 Y59.123 E4.7790
G1 X111.360 Y59.443 E4.8881
G1 X111.368 Y59.445 E4.8886
G1 X111.787 Y59.540 E4.9111
G1 X111.795 Y59.542 E4.9115
G1 X113.789 Y60.146 E5.0207
G1 X113.797 Y60.149 E5.0211
G1 X114.198 Y60.302 E5.0436
G1 X114.206 Y60.305 E5.0440
G1 X116.096 Y61.182 E5.1532
G1 X116.104 Y61.186 E5.1536
G1 X116.479 Y61.393 E5.1761
G1 X116.487 Y61.398 E5.1765
G1 X118.146 Y62.472 E5.2801
G1 X118.149 Y62.474 E5.2803
G1 X118.325 Y62.597 E5.2915
G1 X118.328 Y62.599 E5.2918
G1 X135.225 Y75.301 E6.3991
G1 X164.510 Y68.084 E7.9791
G1 X164.628 Y68.115 E7.9855
G1 X169.467 Y72.633 E8.3323
G1 X169.506 Y72.749 E8.3387
G1 X168.804 Y76.767 E8.5523
G1 X168.802 Y76.775 E8.5528
G1 X168.694 Y77.205 E8.5760
G1 X168.692 Y77.213 E8.5765
G1 X168.278 Y78.473 E8.6459
G1 X168.274 Y78.483 E8.6465
G1 X168.064 Y78.974 E8.6745
G1 X168.059 Y78.983 E8.6750
G1 X167.411 Y80.192 E8.7469
G1 X167.406 Y80.201 E8.7474
G1 X167.113 Y80.648 E8.7754
G1 X167.107 Y80.657 E8.7759
G1 X166.259 Y81.735 E8.8478
G1 X166.252 Y81.743 E8.8483
G1 X165.887 Y82.132 E8.8763
G1 X165.880 Y82.139 E8.8769
G1 X164.858 Y83.054 E8.9487
G1 X164.849 Y83.061 E8.9493
G1 X164.422 Y83.381 E8.9772
G1 X164.414 Y83.387 E8.9778
G1 X163.248 Y84.111 E9.0496
G1 X163.239 Y84.116 E9.0502
G1 X162.763 Y84.357 E9.0782
G1 X162.753 Y84.361 E9.0787
G1 X161.604 Y84.822 E9.1436
G1 X161.599 Y84.824 E9.1439
G1 X161.347 Y84.913 E9.1578
G1 X161.342 Y84.914 E9.1581
G1 X112.880 Y99.601 E11.8108
G1 X118.432 Y104.973 E12.2156
G1 X143.166 Y123.344 E13.8295
G1 X143.170 Y123.347 E13.8298
G1 X143.370 Y123.508 E13.8432
G1 X143.374 Y123.512 E13.8435
G1 X144.143 Y124.190 E13.8972
G1 X144.150 Y124.197 E13.8977
G1 X144.505 Y124.568 E13.9247
G1 X144.512 Y124.575 E13.9252
G1 X145.237 Y125.472 E13.9856
G1 X145.243 Y125.480 E13.9861
G1 X145.532 Y125.905 E14.0131
G1 X145.537 Y125.914 E14.0136
G1 X146.103 Y126.919 E14.0740
G1 X146.107 Y126.928 E14.0745
G1 X146.321 Y127.396 E14.1015
G1 X146.325 Y127.405 E14.1020
G1 X146.714 Y128.491 E14.1624
G1 X146.717 Y128.500 E14.1629
G1 X146.850 Y128.997 E14.1899
G1 X146.852 Y129.007 E14.1904
G1 X147.054 Y130.143 E14.2508
G1 X147.056 Y130.152 E14.2513
G1 X147.103 Y130.664 E14.2783
G1 X147.104 Y130.674 E14.2788
G1 X147.114 Y131.828 E14.3392
G1 X147.113 Y131.838 E14.3397
G1 X147.075 Y132.350 E14.3667
G1 X147.074 Y132.360 E14.3672
G1 X146.891 Y133.499 E14.4276
G1 X146.889 Y133.509 E14.4281
G1 X146.765 Y134.008 E14.4551
G1 X146.762 Y134.018 E14.4556
G1 X146.392 Y135.110 E14.5160
G1 X146.388 Y135.119 E14.5166
G1 X146.183 Y135.590 E14.5435
G1 X146.178 Y135.599 E14.5440
G1 X145.630 Y136.614 E14.6044
G1 X145.625 Y136.623 E14.6049
G1 X145.344 Y137.053 E14.6319
G1 X145.338 Y137.062 E14.6324
G1 X144.629 Y137.971 E14.6928
G1 X144.622 Y137.979 E14.6934
G1 X144.273 Y138.356 E14.7203
G1 X144.266 Y138.363 E14.7208
G1 X143.424 Y139.132 E14.7805
G1 X143.417 Y139.138 E14.7810
G1 X143.032 Y139.437 E14.8065
G1 X143.024 Y139.442 E14.8070
G1 X140.930 Y140.818 E14.9383
G1 X140.868 Y140.838 E14.9417
G1 X137.493 Y140.981 E15.1186
G1 X137.430 Y140.966 E15.1220
G1 X101.232 Y121.366 E17.2784
G1 X85.685 Y120.538 E18.0940
G1 X85.685 Y125.094 E18.3327
G1 X85.648 Y125.182 E18.3377
G1 X82.066 Y128.765 E18.6030
G1 X81.978 Y128.801 E18.6080
G1 X72.439 Y128.801 E19.1077
G1 X72.351 Y128.765 E19.1127
G1 X68.772 Y125.201 E19.3773
G1 X68.736 Y125.113 E19.3823
G1 X68.712 Y119.635 E19.6693
G1 X36.544 Y117.922 E21.3568
G1 X36.522 Y117.918 E21.3580
G1 X35.406 Y117.645 E21.4181
G1 X35.385 Y117.638 E21.4193
G1 X34.117 Y117.060 E21.4923
G1 X34.095 Y117.047 E21.4937
G1 X33.043 Y116.262 E21.5624
G1 X33.024 Y116.245 E21.5637
G1 X32.077 Y115.156 E21.6393
G1 X32.062 Y115.134 E21.6407
G1 X31.413 Y113.928 E21.7124
G1 X31.404 Y113.903 E21.7139
G1 X31.064 Y112.677 E21.7805
G1 X31.060 Y112.662 E21.7813
G1 X30.949 Y111.840 E21.8247
